X: 3037
Q:"Strathspey."
M: C
L: 1/8
K: G
uD |\
{EF}vG2 uD>uG vD>vG,uB,>uG, | A,<A, C<A, E<A, C<A, |\
{EF}G2 D>G D>CB,>D | (3EFG (3FGA B<G G ::\
(3cde (3dcB c<AA>B |\
[1 G<G B>d g>dB>G | c>ed>B G/G/G G :|\
[2 G>DB,>G, (3B,CD (3EFG | (3ABc (3BdA B<G G |]


